packages/assets/static/images/icons/traffic-signal.svg

<svg width="24" height="24" viewBox="0 0 24 24" xmlns="http://www.w3.org/2000/svg">
<path d="M12.0004 5.25C11.407 5.25 10.827 5.42595 10.3337 5.75559C9.84031 6.08524 9.45579 6.55377 9.22873 7.10195C9.00166 7.65013 8.94225 8.25333 9.05801 8.83527C9.17377 9.41721 9.45949 9.95176 9.87905 10.3713C10.2986 10.7909 10.8332 11.0766 11.4151 11.1924C11.997 11.3081 12.6002 11.2487 13.1484 11.0216C13.6966 10.7946 14.1651 10.4101 14.4948 9.91671C14.8244 9.42336 15.0004 8.84334 15.0004 8.25C15.0004 7.45435 14.6843 6.69129 14.1217 6.12868C13.5591 5.56607 12.796 5.25 12.0004 5.25ZM12.0004 9.75C11.7037 9.75 11.4137 9.66203 11.167 9.4972C10.9203 9.33238 10.7281 9.09811 10.6145 8.82403C10.501 8.54994 10.4713 8.24834 10.5292 7.95736C10.5871 7.66639 10.7299 7.39912 10.9397 7.18934C11.1495 6.97956 11.4168 6.8367 11.7077 6.77882C11.9987 6.72094 12.3003 6.75065 12.5744 6.86418C12.8485 6.97771 13.0827 7.16997 13.2476 7.41665C13.4124 7.66332 13.5004 7.95333 13.5004 8.25C13.5004 8.64782 13.3423 9.02936 13.061 9.31066C12.7797 9.59196 12.3982 9.75 12.0004 9.75ZM12.0004 12.75C11.407 12.75 10.827 12.9259 10.3337 13.2556C9.84031 13.5852 9.45579 14.0538 9.22873 14.6019C9.00166 15.1501 8.94225 15.7533 9.05801 16.3353C9.17377 16.9172 9.45949 17.4518 9.87905 17.8713C10.2986 18.2909 10.8332 18.5766 11.4151 18.6924C11.997 18.8081 12.6002 18.7487 13.1484 18.5216C13.6966 18.2946 14.1651 17.9101 14.4948 17.4167C14.8244 16.9234 15.0004 16.3433 15.0004 15.75C15.0004 14.9544 14.6843 14.1913 14.1217 13.6287C13.5591 13.0661 12.796 12.75 12.0004 12.75ZM12.0004 17.25C11.7037 17.25 11.4137 17.162 11.167 16.9972C10.9203 16.8324 10.7281 16.5981 10.6145 16.324C10.501 16.0499 10.4713 15.7483 10.5292 15.4574C10.5871 15.1664 10.7299 14.8991 10.9397 14.6893C11.1495 14.4796 11.4168 14.3367 11.7077 14.2788C11.9987 14.2209 12.3003 14.2506 12.5744 14.3642C12.8485 14.4777 13.0827 14.67 13.2476 14.9166C13.4124 15.1633 13.5004 15.4533 13.5004 15.75C13.5004 16.1478 13.3423 16.5294 13.061 16.8107C12.7797 17.092 12.3982 17.25 12.0004 17.25ZM20.2504 13.5H18.7504V7.5H20.2504C20.4493 7.5 20.64 7.42098 20.7807 7.28033C20.9213 7.13968 21.0004 6.94891 21.0004 6.75C21.0004 6.55109 20.9213 6.36032 20.7807 6.21967C20.64 6.07902 20.4493 6 20.2504 6H18.7504V3.75C18.7504 3.35218 18.5923 2.97064 18.311 2.68934C18.0297 2.40804 17.6482 2.25 17.2504 2.25H6.75037C6.35254 2.25 5.97101 2.40804 5.68971 2.68934C5.4084 2.97064 5.25037 3.35218 5.25037 3.75V6H3.75037C3.55145 6 3.36069 6.07902 3.22004 6.21967C3.07938 6.36032 3.00037 6.55109 3.00037 6.75C3.00037 6.94891 3.07938 7.13968 3.22004 7.28033C3.36069 7.42098 3.55145 7.5 3.75037 7.5H5.25037V13.5H3.75037C3.55145 13.5 3.36069 13.579 3.22004 13.7197C3.07938 13.8603 3.00037 14.0511 3.00037 14.25C3.00037 14.4489 3.07938 14.6397 3.22004 14.7803C3.36069 14.921 3.55145 15 3.75037 15H5.25037V20.25C5.25037 20.6478 5.4084 21.0294 5.68971 21.3107C5.97101 21.592 6.35254 21.75 6.75037 21.75H17.2504C17.6482 21.75 18.0297 21.592 18.311 21.3107C18.5923 21.0294 18.7504 20.6478 18.7504 20.25V15H20.2504C20.4493 15 20.64 14.921 20.7807 14.7803C20.9213 14.6397 21.0004 14.4489 21.0004 14.25C21.0004 14.0511 20.9213 13.8603 20.7807 13.7197C20.64 13.579 20.4493 13.5 20.2504 13.5ZM17.2504 20.25H6.75037V3.75H17.2504V20.25Z"/>
</svg>

<svg viewBox="0 0 24 24" xmlns="http://www.w3.org/2000/svg" aria-hidden="true" fill="currentColor"><path d="M12 5.25a3 3 0 1 0 0 6 3 3 0 0 0 0-6m0 4.5a1.5 1.5 0 1 1 0-3 1.5 1.5 0 0 1 0 3m0 3a3 3 0 1 0 0 5.999 3 3 0 0 0 0-5.999m0 4.5a1.5 1.5 0 1 1 0-3 1.5 1.5 0 0 1 0 3m8.25-3.75h-1.5v-6h1.5a.75.75 0 0 0 0-1.5h-1.5V3.75a1.5 1.5 0 0 0-1.5-1.5H6.75a1.5 1.5 0 0 0-1.5 1.5V6h-1.5a.75.75 0 1 0 0 1.5h1.5v6h-1.5a.75.75 0 1 0 0 1.5h1.5v5.25a1.5 1.5 0 0 0 1.5 1.5h10.5a1.5 1.5 0 0 0 1.5-1.5V15h1.5a.75.75 0 0 0 0-1.5m-3 6.75H6.75V3.75h10.5z"/></svg>
